src/status/24/qbittorrent-tray.svg

<svg width="24" height="24" version="1" xmlns="http://www.w3.org/2000/svg">
 <defs>
  <style id="current-color-scheme" type="text/css">.ColorScheme-Text { color:#363636; } .ColorScheme-Highlight { color:#a0b6cb; }</style>
 </defs>
 <path class="ColorScheme-Text" d="m11.99 3a9 9 0 0 0-8.9902 9 9 9 0 0 0 9 9 9 9 0 0 0 9-9 9 9 0 0 0-9-9 9 9 0 0 0-0.0098 0zm0.0098 1a8 8 0 0 1 8 8 8 8 0 0 1-8 8 8 8 0 0 1-8-8 8 8 0 0 1 8-8zm1 2v6.9473a3 3 0 0 0 0 0.05273v3h1v-0.76367a3 3 0 0 0 2 0.76367 3 3 0 0 0 0.05078 0 3 3 0 0 0 2.9492-3 3 3 0 0 0-3-3 3 3 0 0 0-2 0.76562v-4.7656h-1zm-5.0508 2a3 3 0 0 0-2.9492 3 3 3 0 0 0 3 3 3 3 0 0 0 2-0.76562v4.7656h1v-6.9473a3 3 0 0 0 0-0.05273v-3h-1v0.76367a3 3 0 0 0-2-0.76367 3 3 0 0 0-0.050781 0zm0 1a2 2 0 0 1 0.00195 0 2 2 0 0 1 0.048828 0 2 2 0 0 1 2 1.9512 2 2 0 0 1 0 0.04883 2 2 0 0 1-2 2 2 2 0 0 1-2-2 2 2 0 0 1 1.9492-2zm8 2a2 2 0 0 1 2e-3 0 2 2 0 0 1 0.04883 0 2 2 0 0 1 2 2 2 2 0 0 1-1.9512 2 2 2 0 0 1-0.04883 0 2 2 0 0 1-2-2 2 2 0 0 1 1.9492-2z" fill="currentColor"/>
</svg>

<svg xmlns="http://www.w3.org/2000/svg" width="24" height="24" version="1">
    <defs>
        <style id="current-color-scheme" type="text/css">
            .ColorScheme-Highlight{color:#a0b6cb}
        </style>
    </defs>
    <path fill="currentColor" d="M11.99 3A9 9 0 0 0 3 12a9 9 0 0 0 9 9 9 9 0 0 0 9-9 9 9 0 0 0-9-9 9 9 0 0 0-.01 0zM12 4a8 8 0 0 1 8 8 8 8 0 0 1-8 8 8 8 0 0 1-8-8 8 8 0 0 1 8-8zm1 2v6.947A3 3 0 0 0 13 13v3h1v-.764A3 3 0 0 0 16 16a3 3 0 0 0 .05 0A3 3 0 0 0 19 13a3 3 0 0 0-3-3 3 3 0 0 0-2 .766V6h-1zM7.949 8a3 3 0 0 0-2.95 3 3 3 0 0 0 3 3 3 3 0 0 0 2-.766V18h1v-6.947A3 3 0 0 0 11 11V8h-1v.764A3 3 0 0 0 8 8a3 3 0 0 0-.05 0zm0 1a2 2 0 0 1 .002 0A2 2 0 0 1 8 9a2 2 0 0 1 2 1.951A2 2 0 0 1 10 11a2 2 0 0 1-2 2 2 2 0 0 1-2-2 2 2 0 0 1 1.949-2zm8 2a2 2 0 0 1 .002 0A2 2 0 0 1 16 11a2 2 0 0 1 2 2 2 2 0 0 1-1.951 2 2 2 0 0 1-.05 0 2 2 0 0 1-2-2 2 2 0 0 1 1.95-2z" style="color:#050505;opacity:.7"/>
</svg>
